X: 13269
T: Five Mile Chase, The
R: reel
M: 4/4
K: Gmajor
|:G2 (3BAG dGBG|FADA FADA|G2 (3BAG dGBd|egfa gedB|
G2 (3BAG dGBG|FADA FADA|G2 (3BAG dGBd|egfa g2 gf:|
|:gdBd edBd|gabg agef|gdBd edBd|egfa g3f|
gabg efge|dedc BGBd|e3d ed (3Bcd|egfa gedB:|

